X:4596
L:1/8
Q:1/2=50
M:2/2
K:D
 D>ED>F A>BA>A | (B<d)A>F (G<E) E2 | D>ED>F A>BA>A | (B<d)A>F{F} E4 :| f>gf>d (e<c)(B<A) | 
 d>ed>B c<AG<F | B>cB>G A<FE<D | E>FG>F{F} E4 | D>ED>F A>BA>A | (B<d)(A<d) (G<d)(F>d) | 
 D>ED>F A>BA>g | f>dA>c{c} d2 |]

